X:1
T:Alphabet Song
C:Traditional Kid's Song
M:4/4
L:1/4
Q:1/4=100
K:D
| D D A A|B B A2|G G F F|E/2E/2E/2E/2 D2|
w:A B C D E F G  H I J K L  M  N  O   P
  A A G2 | F F E2|A/A/   A  G2 | F F E2|
w:Q R S *   T U V  W~(dou-ble u)__  X Y and  Z
   D   D    A    A |B B A2 | G    G  F    F | E     E  D2|
w: Now I've said my A B C's. Tell me what you think of me.